CSETWebApi/CSETWeb_Api/CSETWeb_ApiCore/Diagram/src/main/webapp/img/lib/mscae/Site_Recovery.svg

<svg xmlns="http://www.w3.org/2000/svg" width="49.9" height="41.8"><path d="M28.4 13.6c6 0 10.9 4.5 11.6 10.2a13.11 13.11 0 0 1 3.3 3.8 8.68 8.68 0 0 0 6.6-8.5c0-3.3-1.8-5.9-4.9-7.4v-1.1C45 4.8 40.2 0 34.4 0c-3.5 0-6.7 1.7-8.7 4.4-1.3-.8-2.7-1.2-4.3-1.2-4.2 0-7.6 3.2-8 7.2.6-.1 1.3-.1 2-.1 3.1 0 6.6.5 9.5 3.6l3.5-.3z" fill="#59b4d9"/><path d="M36.5 25.8v-.6c0-4.4-3.6-8-8-8-1.4 0-2.7.4-3.9 1v.1-.1c-.1.1-.3.1-.4.2l-.1-.1c-2.3 1.7-3.3 4.3-3.4 7.1h3.5l-5.3 6.3-5.4-6.3h3.6c.1-3.8 1.6-7.4 4.2-9.7-1.7-1.1-3.7-1.7-5.8-1.7-5.9 0-10.7 4.7-10.7 10.5v1.1C1.8 27.1 0 29.7 0 33c0 5 4 8.8 9.2 8.8h22.7c5.2 0 9.2-3.9 9.2-8.8 0-3.2-1.6-5.7-4.6-7.2z" fill="#0072c6"/></svg>

<?xml version="1.0" encoding="UTF-8" standalone="no"?>
<svg
   xmlns:dc="http://purl.org/dc/elements/1.1/"
   xmlns:cc="http://creativecommons.org/ns#"
   xmlns:rdf="http://www.w3.org/1999/02/22-rdf-syntax-ns#"
   xmlns:svg="http://www.w3.org/2000/svg"
   xmlns="http://www.w3.org/2000/svg"
   xmlns:sodipodi="http://sodipodi.sourceforge.net/DTD/sodipodi-0.dtd"
   xmlns:inkscape="http://www.inkscape.org/namespaces/inkscape"
   version="1.1"
   id="Layer_1"
   x="0px"
   y="0px"
   width="49.900002"
   height="41.799999"
   viewBox="0 0 49.900002 41.799999"
   enable-background="new 0 0 50 50"
   xml:space="preserve"
   inkscape:version="0.91 r13725"
   sodipodi:docname="Azure Site Recovery _COLOR.svg"><metadata
     id="metadata11"><rdf:RDF><cc:Work
         rdf:about=""><dc:format>image/svg+xml</dc:format><dc:type
           rdf:resource="http://purl.org/dc/dcmitype/StillImage" /><dc:title></dc:title></cc:Work></rdf:RDF></metadata><defs
     id="defs9" /><sodipodi:namedview
     pagecolor="#ffffff"
     bordercolor="#666666"
     borderopacity="1"
     objecttolerance="10"
     gridtolerance="10"
     guidetolerance="10"
     inkscape:pageopacity="0"
     inkscape:pageshadow="2"
     inkscape:window-width="1920"
     inkscape:window-height="1018"
     id="namedview7"
     showgrid="false"
     fit-margin-top="0"
     fit-margin-left="0"
     fit-margin-right="0"
     fit-margin-bottom="0"
     inkscape:zoom="7.3282407"
     inkscape:cx="34.160361"
     inkscape:cy="3.6407775"
     inkscape:window-x="-8"
     inkscape:window-y="-8"
     inkscape:window-maximized="1"
     inkscape:current-layer="Layer_1" /><path
     d="M 28.4,13.6 C 34.4,13.6 39.3,18.1 40,23.8 41.4,24.9 42.5,26.2 43.3,27.6 47.2,26.6 49.9,23.2 49.9,19.1 49.9,15.8 48.1,13.2 45,11.7 45,11.3 45,11 45,10.6 45,4.8 40.2,0 34.4,0 30.9,0 27.7,1.7 25.7,4.4 24.4,3.6 23,3.2 21.4,3.2 17.2,3.2 13.8,6.4 13.4,10.4 14,10.3 14.7,10.3 15.4,10.3 18.5,10.3 22,10.8 24.9,13.9 L 28.4,13.6 Z"
     id="path3"
     inkscape:connector-curvature="0"
     style="fill:#59b4d9" /><path
     d="M 36.5,25.8 36.5,25.2 C 36.5,20.8 32.9,17.2 28.5,17.2 27.1,17.2 25.8,17.6 24.6,18.2 L 24.6,18.3 24.6,18.2 C 24.5,18.3 24.3,18.3 24.2,18.4 24.2,18.4 24.2,18.4 24.1,18.3 21.8,20 20.8,22.6 20.7,25.4 L 24.2,25.4 18.9,31.7 13.5,25.4 17.1,25.4 C 17.2,21.6 18.7,18 21.3,15.7 19.6,14.6 17.6,14 15.5,14 9.6,14 4.8,18.7 4.8,24.5 4.8,24.9 4.8,25.2 4.8,25.6 1.8,27.1 0,29.7 0,33 0,38 4,41.8 9.2,41.8 L 31.9,41.8 C 37.1,41.8 41.1,37.9 41.1,33 41.1,29.8 39.5,27.3 36.5,25.8 Z"
     id="path5"
     inkscape:connector-curvature="0"
     style="fill:#0072c6" /></svg>
